X: 13481
T: Flower Of The Flock, The
R: reel
M: 4/4
K: Gmajor
|:DEGA BG GG|cABG AGEG|DEGE B2 Be|1 dBAF ~G3E:|2 dBAF ~G3e||
~g3 e dGBG|~A3G AGfe|~g3 e d2 (3Bcd|eaag agef|
~g3 e dGBG|AcBG AGEG|DEGE B2 Be|dBAF ~G3E||

